!!!!SEGMENT: pl-sa--3-a-i-3--003_binder-christlieb-siegmund--missa-ex-c-credo.krn
!!!cenid: 17xx:589
!!!COM: Binder, Christlieb Siegmund
!!!COM-rismid: pe356579
!!!CDT: 1723-1789
!!!CNT: German
!!!OPR: Missa ex C
!!!OTL: Credo
!!!OMV: 003
!!!PDT: 1814
!!!AGN: Sacred; Mass
!!!SMS-siglum: PL-SA
!!!SMS-shelfmark: 3/A I 3
!!!SMS-shelfwork: 001-003 M
!!!SMS-variant:
!!!SMS-altvar:
!!!NIFC-rismid: 1001036472
!!!URL-scan: http://bc.bdsandomierz.pl/dlibra/publication/1271/edition/1239/content
!!!ONB-nifc: UWAGA: części Mszy: Kyrie, Gloria, Credo, Sanctus, Benedictus, Agnus Dei
!!!key:
**kern	**fba	**dynam	**kern	**dynam	**kern	**dynam	**kern	**text	**kern	**text	**kern	**text
*part6	*	*part6	*part5	*part5	*part4	*part4	*part3	*part3	*part2	*part2	*part1	*part1
*staff6	*	*	*staff5	*	*staff4	*	*staff3	*staff3	*staff2	*staff2	*staff1	*staff1
*Iorgan	*	*	*Ivioln	*	*Ivioln	*	*Itenor	*	*Ialto	*	*Ivox	*
*I"Organo.	*	*	*I"Violino 2do.	*	*I"Violino Primo	*	*I"Tenore	*	*I"Alto.	*	*I"Canto.	*
*I'org	*	*	*I'vl 2	*	*I'vl 1	*	*I'T	*	*I'A	*	*I'C	*
*clefF4	*	*	*clefG2	*	*clefG2	*	*clefC4	*	*clefC3	*	*clefC1	*
*k[b-]	*	*	*k[b-]	*	*k[b-]	*	*k[b-]	*	*k[b-]	*	*k[b-]	*
*F:	*	*	*F:	*	*F:	*	*F:	*	*F:	*	*F:	*
*M2/4	*	*	*M2/4	*	*M2/4	*	*M2/4	*	*M2/4	*	*M2/4	*
=1	=1	=1	=1	=1	=1	=1	=1	=1	=1	=1	=1	=1
!LO:TX:i:b:t=Tutti	!	!	!	!	!	!	!	!	!	!	!	!
!LO:TX:a:t=P:problem=napis "Credo" wers wyżej na pięciolinii	!	!	!	!	!	!	!	!	!	!	!	!
!LO:TX:i:a:t=Credo:rj	!	!	!LO:TX:i:a:t=All(egr)o. Moderato	!	!LO:TX:b:i:t=Credo&colon;	!	!	!	!	!	!	!
!LO:TX:i:a:t=all(egr)o moder(ato)	!	!	!LO:TX:i:b:t=Credo.	!	!LO:TX:a:i:t=All(egr)o. Moderato	!	!LO:TX:a:i:t=all(egr)o. Moder(ato)&colon;	!	!LO:TX:i:a:t=all(egr)o.	!	!LO:TX:i:a:t=all(egr)o&colon;	!
8F\L	.	.	8a\L	.	8ff\L	.	8c\	Cre-	8a\	Cre-	8ff\	Cre-
8F\J	.	.	16cc\L	.	16aa\L	.	8c\	-do	8a\	-do	8ff\	-do
.	.	.	16b-\JJ	.	16gg\JJ	.	.	.	.	.	.	.
8r	.	.	16a\LL	.	16ff\LL	.	8r	.	8r	.	8r	.
.	.	.	16cc\	.	16ee\	.	.	.	.	.	.	.
16r	.	.	16b-\	.	16dd\	.	16r	.	16r	.	16r	.
16F\	.	.	16a\JJ	.	16cc\JJ	.	16A\	in	16f\	in	16cc\	in
=2	=2	=2	=2	=2	=2	=2	=2	=2	=2	=2	=2	=2
!LO:TX:a:t=P:problem=mixed beam	!	!	!	!	!	!	!	!	!	!	!	!
!	!	!	!	!	!	!	!	!LO:SIC:s=u-	!	!	!	!
8F\L	6 4	.	8b-\L	.	8dd\L	.	8B-\	un-	8f\	u-	8dd\	u-
8FF/J	5 3	.	8a\J	.	8cc\J	.	8A\	-num	8f\	-num	8cc\	-num
4r	.	.	4r	.	4r	.	4r	.	4r	.	4r	.
=3	=3	=3	=3	=3	=3	=3	=3	=3	=3	=3	=3	=3
8F\L	.	.	16a\LL	.	16ff\LL	.	16c\	in	16a\	in	16ff\	in
!	!	!	!	!	!	!	!	!LO:SIC:s=u-	!	!LO:SIC:s=u-	!	!
.	.	.	16b-\	.	16gg\	.	16c\	un-	16a\	un-	16ff\	u-
8F\J	.	.	16cc\	.	16aa\	.	8c\	-num	8a\	-num	8ff\	-num
.	.	.	16b-\JJ	.	16gg\JJ	.	.	.	.	.	.	.
8r	.	.	16a\LL	.	16ff\LL	.	8r	.	8r	.	8r	.
.	.	.	16cc\	.	16ee\	.	.	.	.	.	.	.
16r	.	.	16b-\	.	16dd\	.	16r	.	16r	.	16r	.
16F\	.	.	16a\JJ	.	16cc\JJ	.	16c\	De-	16a\	De-	16cc\	De-
=4	=4	=4	=4	=4	=4	=4	=4	=4	=4	=4	=4	=4
8E\L	X 5	.	8g/L	.	8b-\L	.	8c\	-um	8g\	-um	8b-\	-um
8F\	.	.	8f/	.	8a\J	.	8c\	Pa-	8f\	Pa-	8a\	Pa-
8F\	.	.	8a/J	.	8cc\	.	8A/	-trem	8f\	-trem	8cc\	-trem
8F\J	.	.	16r	.	16r	.	8A/	O-	8f\	o-	8cc\	O-
.	.	.	16a/	.	16cc\	.	.	.	.	.	.	.
=5	=5	=5	=5	=5	=5	=5	=5	=5	=5	=5	=5	=5
*tremolo	*	*	*	*	*	*	*	*	*	*	*	*
*2\right	*	*	*	*	*	*	*	*	*	*	*	*
8F\L	6 4	.	16b-\LL	.	16dd\LL	.	4B-\	-mni-	4f\	-mni-	4dd\	-mni-
.	.	.	16dd\	.	16b-\	.	.	.	.	.	.	.
8F\	.	.	16ff\	.	16ff\	.	.	.	.	.	.	.
.	.	.	16dd\JJ	.	16dd\JJ	.	.	.	.	.	.	.
8F\	.	.	16bb-\LL	.	16bb-\LL	.	8d\L	-po-	4f\	-po-	8ff\L	-po-
.	.	.	16ff\	.	16ff\	.	.	.	.	.	.	.
8F\J	.	.	16dd\	.	16dd\	.	8B-\J	.	.	.	8dd\J	.
.	.	.	16b-\JJ	.	16b-\JJ	.	.	.	.	.	.	.
!	!	!	!	!	!	!	!LO:LB:g=original	!	!	!	!	!
=6	=6	=6	=6	=6	=6	=6	=6	=6	=6	=6	=6	=6
8F\L	5 3	.	16cc\LL	.	16cc\LL	.	8A/	-ten-	8f\	-ten-	8cc\	-ten-
.	.	.	16a\	.	16a\	.	.	.	.	.	.	.
8F\	.	.	16ff\	.	16ff\	.	8A/	-tem	8f\	-tem	8cc\	-tem
.	.	.	16cc\JJ	.	16cc\JJ	.	.	.	.	.	.	.
!	!	!	!	!	!	!	!	!	!LO:LB:g=original	!	!	!
8F\	.	.	16aa\LL	.	16aa\LL	.	8A/	fa-	8f\	fa-	8cc\	fa-
.	.	.	16ff\	.	16ff\	.	.	.	.	.	.	.
8F\J	.	.	16cc\	.	16cc\	.	16A/	-cto-	16f\	-cto-	(>16cc\	-cto-
.	.	.	16a\JJ	.	16a\JJ	.	16A/	-rem	16f\	-rem	16cc\)	-rem
!	!	!	!	!	!	!	!	!	!	!	!LO:LB:g=original	!
=7	=7	=7	=7	=7	=7	=7	=7	=7	=7	=7	=7	=7
8E\L	X 5	.	16b-\LL	.	16b-\LL	.	8c\	Cae-	8g\	Cae-	8b-\	Cae-
.	.	.	16g\	.	16g\	.	.	.	.	.	.	.
8E\	.	.	16ee\	.	16ee\	.	16c\	-li	16g\	-li	16b-\	-li
.	.	.	16cc\JJ	.	16cc\JJ	.	16c\	et	16g\	et	16b-\	et
8E\	.	.	16gg\LL	.	16gg\LL	.	8c\	ter-	8b-\	ter-	8gg\	ter-
.	.	.	16ee\	.	16ee\	.	.	.	.	.	.	.
8E\J	.	.	16cc\	.	16cc\	.	8c\	-rae	8g\	-rae	8b-\	-rae
.	.	.	16b-\JJ	.	16b-\JJ	.	.	.	.	.	.	.
*Xtremolo	*	*	*	*	*	*	*	*	*	*	*	*
!	!	!	!	!	!LO:LB:g=original	!	!	!	!	!	!	!
=8	=8	=8	=8	=8	=8	=8	=8	=8	=8	=8	=8	=8
4F\	.	.	16a/LL	.	16a/LL	.	16A\	vi-	16f\	vi-	16a\	vi-
.	.	.	16f/	.	16f/	.	16A\	-si-	16f\	-si-	16a\	-si-
.	.	.	16cc/	.	16cc/	.	16c\	-bi-	16a\	-bi-	16cc\	-bi-
.	.	.	16a/JJ	.	16a/JJ	.	16c\	-li-	16a\	-li-	16cc\	-li-
8r	.	.	16ff\LL	.	16ff\LL	.	8f\	-um	8a\	-um	8ff\	-um
.	.	.	16cc\	.	16cc\	.	.	.	.	.	.	.
8F\	.	.	16a\	.	16a\	.	8A\	O-	8f\	o-	8a\	o-
.	.	.	16f\JJ	.	16f\JJ	.	.	.	.	.	.	.
!	!	!	!LO:LB:g=original	!	!	!	!	!	!	!	!	!
=9	=9	=9	=9	=9	=9	=9	=9	=9	=9	=9	=9	=9
!LO:TX:a:t=P:problem=mixed beam	!	!	!	!	!	!	!	!	!	!	!	!
8c\L	6 4	.	8f/L	.	8a/L	.	8c\	-mni-	8f\	-mni-	8a\	-mni-
8C/J	5 3	.	8e/	.	8g/	.	8c\	-um	8en\	-um	8g\	-um
8G\L	X n_	.	8g/	.	8bn/	.	8G/	et	8f\	et	8bn\	et
8G\J	.	.	8g/J	.	8b/J	.	8G/	in-	8f\	in-	8b\	in-
!	!	!	!	!	!	!	!LO:LB:g=original	!	!	!	!	!
=10	=10	=10	=10	=10	=10	=10	=10	=10	=10	=10	=10	=10
16c\LL	x	.	16cc\LL	.	16cc/LL	.	4G/	-vi-	4en\	-vi-	4cc\	-vi-
16Bn\	.	.	16bn\	.	16bn/	.	.	.	.	.	.	.
16A\	.	.	16a\	.	16a/	.	.	.	.	.	.	.
16G\JJ	.	.	16g\JJ	.	16g/JJ	.	.	.	.	.	.	.
16F\LL	.	.	16f/LL	.	16f/LL	.	4G/	-si-	4e\	-si-	4cc\	-si-
16E\	.	.	16e/	.	16e/	.	.	.	.	.	.	.
16D\	.	.	16d/	.	16d/	.	.	.	.	.	.	.
16C\JJ	.	.	16c/JJ	.	16c/JJ	.	.	.	.	.	.	.
!LO:LB:g=original	!	!	!	!	!	!	!	!	!LO:LB:g=original	!	!	!
=11	=11	=11	=11	=11	=11	=11	=11	=11	=11	=11	=11	=11
16BBn/LL	.	.	8Bn/	.	8Bn/	.	4.f\	-bi-	4.d\	-bi-	4.bn\	-bi-
16GG/	.	.	.	.	.	.	.	.	.	.	.	.
16BB/	.	.	4G/	.	4B/	.	.	.	.	.	.	.
16GG/JJ	.	.	.	.	.	.	.	.	.	.	.	.
16BB/LL	.	.	.	.	.	.	.	.	.	.	.	.
16GG/	.	.	.	.	.	.	.	.	.	.	.	.
16BB/	.	.	8B/	.	8d/	.	8f\	-li-	8d\	-li-	8b\	-li-
16GG/JJ	.	.	.	.	.	.	.	.	.	.	.	.
=12	=12	=12	=12	=12	=12	=12	=12	=12	=12	=12	=12	=12
16C/LL	.	.	16c/LL	.	16c/LL	.	8e\	-um	8e\	-um	8cc\	-um
16D/	.	.	16d/	.	16d/	.	.	.	.	.	.	.
16E/	.	.	16e/	.	16e/	.	8r	.	8r	.	8r	.
16F/JJ	.	.	16f/JJ	.	16f/JJ	.	.	.	.	.	.	.
16G\LL	.	.	16g\LL	.	16g/LL	.	4r	.	4r	.	4r	.
16A\	.	.	16a\	.	16a/	.	.	.	.	.	.	.
16Bn\	.	.	16bn\	.	16bn/	.	.	.	.	.	.	.
16c\JJ	.	.	16cc\JJ	.	16cc/JJ	.	.	.	.	.	.	.
=13	=13	=13	=13	=13	=13	=13	=13	=13	=13	=13	=13	=13
!	!	!	!	!	!	!	!LO:TX:a:t=P:problem=pauza wielotaktowa 17-taktowa	!	!	!	!	!
!	!	!	!	!	!	!	!LO:TX:a:t=17.	!	!LO:TX:a:t=17.	!	!LO:TX:a:t=4.	!
!	!	!	!	!	!	!	!	!	!LO:N:vis=00	!	!LO:N:vis=00	!
16Bn\LL	.	.	8g/L	.	8bn\L	.	2r	.	0r	.	0r	.
16G\	.	.	.	.	.	.	.	.	.	.	.	.
16B\	.	.	8g/J	.	8b\J	.	.	.	.	.	.	.
16G\JJ	.	.	.	.	.	.	.	.	.	.	.	.
16B\LL	.	.	8.g/L	.	8.b\L	.	.	.	.	.	.	.
16G\	.	.	.	.	.	.	.	.	.	.	.	.
16B\	.	.	.	.	.	.	.	.	.	.	.	.
16G\JJ	.	.	16bn/Jk	.	16dd\Jk	.	.	.	.	.	.	.
=14	=14	=14	=14	=14	=14	=14	=14	=14	=14	=14	=14	=14
16c\LL	.	.	16cc/LL	.	16cc\LL	.	2r	.	.	.	.	.
16Bn\	.	.	16bn/	.	16bn\	.	.	.	.	.	.	.
16A\	.	.	16a/	.	16a\	.	.	.	.	.	.	.
16G\JJ	.	.	16g/JJ	.	16g\JJ	.	.	.	.	.	.	.
16F\LL	.	.	16f/LL	.	16f/LL	.	.	.	.	.	.	.
16E\	.	.	16e/	.	16e/	.	.	.	.	.	.	.
16D\	.	.	16d/	.	16d/	.	.	.	.	.	.	.
16C\JJ	.	.	16c/JJ	.	16c/JJ	.	.	.	.	.	.	.
!	!	!	!	!	!LO:LB:g=original	!	!	!	!	!	!	!
=15	=15	=15	=15	=15	=15	=15	=15	=15	=15	=15	=15	=15
16BBn/LL	.	.	8Bn/	.	8Bn/	.	2r	.	.	.	.	.
16GG/	.	.	.	.	.	.	.	.	.	.	.	.
16BB/	.	.	4G/	.	4B/	.	.	.	.	.	.	.
16GG/JJ	.	.	.	.	.	.	.	.	.	.	.	.
16BB/LL	.	.	.	.	.	.	.	.	.	.	.	.
16GG/	.	.	.	.	.	.	.	.	.	.	.	.
16BB/	.	.	8B/	.	8d/	.	.	.	.	.	.	.
16GG/JJ	.	.	.	.	.	.	.	.	.	.	.	.
=16	=16	=16	=16	=16	=16	=16	=16	=16	=16	=16	=16	=16
!LO:TX:a:t=P:problem=mixed beam	!	!	!	!	!	!	!	!	!	!	!	!
8C/L	.	.	8c/L	.	8c/L	.	2r	.	.	.	.	.
8c\	.	.	8c/ 8e	.	8G/ 8e 8cc	.	.	.	.	.	.	.
8C/J	.	.	8c/J 8e	.	8G/J 8e 8cc	.	.	.	.	.	.	.
8r	.	.	8r	.	8r	.	.	.	.	.	.	.
!	!	!	!	!	!	!	!	!	!	!	!LO:LB:g=original	!
=17	=17	=17	=17	=17	=17	=17	=17	=17	=17	=17	=17	=17
!LO:TX:a:t=4	!	!	!	!	!LO:HP:a:i:t=p.	!	!	!	!	!	!	!
!LO:N:vis=00	!	!	!	!	!	!	!	!	!LO:TX:b:t=P:problem=brak kreski taktowe	!	!	!
!	!	!	!	!	!	!LO:DY:b	!	!	!LO:N:vis=00	!	!	!
0r	.	.	16c/LL	.	4gg\	p	2r	.	0r	.	4gg\	Et
.	.	.	16g/	.	.	.	.	.	.	.	.	.
.	.	.	16e/	.	.	.	.	.	.	.	.	.
.	.	.	16g/JJ	.	.	.	.	.	.	.	.	.
*	*	*	*rep	*	*	*	*	*	*	*	*	*
.	.	.	16c/LL	.	16ff\LL	.	.	.	.	.	16ff\LL	in
.	.	.	16g/	.	16ee\	.	.	.	.	.	16ee\	.
.	.	.	16e/	.	16dd\	.	.	.	.	.	16dd\	.
.	.	.	16g/JJ	.	16cc\JJ	.	.	.	.	.	16cc\JJ	.
*	*	*	*Xrep	*	*	*	*	*	*	*	*	*
!	!	!	!LO:LB:g=original	!	!	!	!	!	!	!	!	!
=18	=18	=18	=18	=18	=18	=18	=18	=18	=18	=18	=18	=18
.	.	.	16c/LL	.	8.ccT>\L	.	2r	.	.	.	8.cc\L	u-
.	.	.	16g/	.	.	.	.	.	.	.	.	.
.	.	.	16e/	.	.	.	.	.	.	.	.	.
.	.	.	16g/JJ	.	32bn\LL	.	.	.	.	.	32bn\LL	.
.	.	.	.	.	32cc\JJJ	.	.	.	.	.	32cc\JJJ	.
.	.	.	16d/LL	.	4b\	.	.	.	.	.	4b\	-num
.	.	.	16g/	.	.	.	.	.	.	.	.	.
.	.	.	16f/	.	.	.	.	.	.	.	.	.
.	.	.	16g/JJ	.	.	.	.	.	.	.	.	.
=19	=19	=19	=19	=19	=19	=19	=19	=19	=19	=19	=19	=19
.	.	.	16G/LL	.	4ff\	.	2r	.	.	.	4ff\	Do-
.	.	.	16f/	.	.	.	.	.	.	.	.	.
.	.	.	16d/	.	.	.	.	.	.	.	.	.
.	.	.	16f/JJ	.	.	.	.	.	.	.	.	.
*	*	*	*rep	*	*	*	*	*	*	*	*	*
.	.	.	16G/LL	.	16ee\LL	.	.	.	.	.	16ee\LL	.
.	.	.	16f/	.	16dd\	.	.	.	.	.	16dd\	.
.	.	.	16d/	.	16cc\	.	.	.	.	.	16cc\	.
.	.	.	16f/JJ	.	16bn\JJ	.	.	.	.	.	16bn\JJ	.
*	*	*	*Xrep	*	*	*	*	*	*	*	*	*
=20	=20	=20	=20	=20	=20	=20	=20	=20	=20	=20	=20	=20
.	.	.	16G/LL	.	8.dd\L	.	2r	.	.	.	8.dd\L	-mi-
.	.	.	16f/	.	.	.	.	.	.	.	.	.
.	.	.	16d/	.	.	.	.	.	.	.	.	.
.	.	.	16f/JJ	.	32cc\LL	.	.	.	.	.	32cc\LL	.
.	.	.	.	.	32dd\JJJ	.	.	.	.	.	32dd\JJJ	.
.	.	.	8e/L	.	4cc\	.	.	.	.	.	4cc\	-num
.	.	.	8g/J	.	.	.	.	.	.	.	.	.
=21	=21	=21	=21	=21	=21	=21	=21	=21	=21	=21	=21	=21
!	!	!LO:DY:a	!	!	!	!	!	!	!	!	!	!
!	!	!LO:HP:a:i:t=Pia	!	!	!	!	!	!	!LO:TX:b:t=P:problem=brak kreski taktowe	!	!	!
!	!	!	!	!	!	!	!	!	!LO:N:vis=00	!	!	!
8F\L	.	p	8d/L	.	16f/LL	.	2r	.	0r	.	8dd\	Je-
.	.	.	.	.	16g/	.	.	.	.	.	.	.
8E\	.	.	8c/	.	16e/	.	.	.	.	.	8cc\	-sum
.	.	.	.	.	16g/JJ	.	.	.	.	.	.	.
8D\	.	.	8Bn/	.	16d/LL	.	.	.	.	.	8ff\	chri-
.	.	.	.	.	16g/	.	.	.	.	.	.	.
8C\J	.	.	8c/J	.	16c/	.	.	.	.	.	8ee\	-stu(m)
.	.	.	.	.	16g/JJ	.	.	.	.	.	.	.
!LO:LB:g=original	!	!	!	!	!	!	!	!	!	!	!	!
=22	=22	=22	=22	=22	=22	=22	=22	=22	=22	=22	=22	=22
8BBn/L	.	.	8Bn/L	.	16Bn/LL	.	2r	.	.	.	16dd\LL	Fi-
.	.	.	.	.	16g/	.	.	.	.	.	16cc#X\JJ	.
8GG/J	.	.	8B/J	.	16A/	.	.	.	.	.	16dd\LL	-li-
.	.	.	.	.	16g/JJ	.	.	.	.	.	16ee\JJ	.
4GG/	.	.	4B/	.	16B/LL	.	.	.	.	.	4dd\	-um
.	.	.	.	.	16g/	.	.	.	.	.	.	.
.	.	.	.	.	16G/	.	.	.	.	.	.	.
.	.	.	.	.	16g/JJ	.	.	.	.	.	.	.
!	!	!	!	!	!LO:LB:g=original	!	!	!	!	!	!	!
=23	=23	=23	=23	=23	=23	=23	=23	=23	=23	=23	=23	=23
!LO:TX:a:t=3.	!	!	!	!	!	!	!	!	!	!	!	!
!LO:N:vis=0	!	!	!	!	!	!	!	!	!	!	!	!
1r	.	.	16g/LL	.	4ff\	.	2r	.	.	.	4ff\	De-
.	.	.	16bn/	.	.	.	.	.	.	.	.	.
.	.	.	16dd/	.	.	.	.	.	.	.	.	.
.	.	.	16b/JJ	.	.	.	.	.	.	.	.	.
*	*	*	*rep	*	*	*	*	*	*	*	*	*
.	.	.	16g/LL	.	4dd\	.	.	.	.	.	4dd\	-i
.	.	.	16bn/	.	.	.	.	.	.	.	.	.
.	.	.	16dd/	.	.	.	.	.	.	.	.	.
.	.	.	16b/JJ	.	.	.	.	.	.	.	.	.
*	*	*	*Xrep	*	*	*	*	*	*	*	*	*
=24	=24	=24	=24	=24	=24	=24	=24	=24	=24	=24	=24	=24
.	.	.	16cc\LL	.	8.gg\L	.	2r	.	.	.	8.gg\L	u-
.	.	.	16cc\	.	.	.	.	.	.	.	.	.
.	.	.	16cc\	.	.	.	.	.	.	.	.	.
!	!	!	!	!	!	!	!	!	!	!	!LO:N:vis=8	!
.	.	.	16g\JJ	.	16ee\Jk	.	.	.	.	.	16ee\Jk	.
.	.	.	16e/LL	.	4cc\	.	.	.	.	.	4cc\	-ni-
.	.	.	16g/	.	.	.	.	.	.	.	.	.
.	.	.	16e/	.	.	.	.	.	.	.	.	.
.	.	.	16g/JJ	.	.	.	.	.	.	.	.	.
!	!	!	!	!	!	!	!	!	!	!	!LO:LB:g=original	!
=25	=25	=25	=25	=25	=25	=25	=25	=25	=25	=25	=25	=25
!	!	!	!	!	!	!	!	!	!LO:TX:b:t=P:problem=brak kreski taktowe	!	!	!
!	!	!	!	!	!	!	!	!	!LO:N:vis=00	!	!	!
2r	.	.	8f/L	.	16dd\LL	.	2r	.	0r	.	16dd\LL	-ge-
.	.	.	.	.	16ee\	.	.	.	.	.	16ee\	.
.	.	.	8d/	.	16ff\	.	.	.	.	.	16ff\	.
.	.	.	.	.	16dd\JJ	.	.	.	.	.	16dd\JJ	.
.	.	.	8g/	.	8cc\L	.	.	.	.	.	8cc\L	-ni-
.	.	.	8G/J	.	8bn\J	.	.	.	.	.	8bn\J	.
=26	=26	=26	=26	=26	=26	=26	=26	=26	=26	=26	=26	=26
!	!	!LO:HP:b:i:t=p.	!	!	!	!	!	!	!	!	!	!
!	!	!LO:DY:b	!	!	!LO:TX:a:t=P:problem=mixed beam	!	!	!	!	!	!	!
4C/	.	p	8c/L	.	8cc\L	.	2r	.	.	.	8cc\	-tum
.	.	.	16c/L	.	16e/L	.	.	.	.	.	8r	.
!	!	!	!	!	!	!LO:DY:b	!	!	!	!	!	!
!	!	!	!	!	!	!LO:HP:b:i:t=for.	!	!	!	!	!	!
.	.	.	16d/JJ	.	16f/JJ	f	.	.	.	.	.	.
4r	.	.	8e/L	.	8g/L	.	.	.	.	.	4r	.
.	.	.	8e/J	.	8g/J	.	.	.	.	.	.	.
!	!	!	!LO:LB:g=original	!	!	!	!	!	!	!	!	!
=27	=27	=27	=27	=27	=27	=27	=27	=27	=27	=27	=27	=27
!	!	!	!	!	!	!	!	!	!	!	!LO:TX:a:t=3.	!
!	!	!	!	!	!	!	!	!	!	!	!LO:N:vis=0	!
8r	.	.	8f/	.	8a/	.	2r	.	.	.	1r	.
8F\L	.	.	4a/	.	4cc\	.	.	.	.	.	.	.
8F\J	.	.	.	.	.	.	.	.	.	.	.	.
8r	.	.	16g/LL	.	16bn/LL	.	.	.	.	.	.	.
.	.	.	16f/JJ	.	16a/JJ	.	.	.	.	.	.	.
=28	=28	=28	=28	=28	=28	=28	=28	=28	=28	=28	=28	=28
!LO:TX:a:t=P:problem=mixed beam	!	!	!	!	!	!	!	!	!	!	!	!
8E\L	.	.	16e/LL	.	16g/LL	.	2r	.	.	.	.	.
.	.	.	16a/	.	16cc/	.	.	.	.	.	.	.
8F\	.	.	16g/	.	16bn/	.	.	.	.	.	.	.
.	.	.	16f/JJ	.	16a/JJ	.	.	.	.	.	.	.
8G\	.	.	16e/LL	.	16g/LL	.	.	.	.	.	.	.
.	.	.	16d/	.	16f/	.	.	.	.	.	.	.
8GG/J	.	.	16c/	.	16e/	.	.	.	.	.	.	.
.	.	.	16Bn/JJ	.	16d/JJ	.	.	.	.	.	.	.
!	!	!	!	!	!	!	!	!	!LO:TX:b:t=P:problem=brak kreski taktowe	!	!LO:TX:b:t=P:problem=brak kreski taktowej	!
=29	=29	=29	=29	=29	=29	=29	=29	=29	=29	=29	=29	=29
!	!	!	!	!	!LO:TX:a:t=P:problem=mixed beam	!	!	!	!	!	!	!
16C/LL	.	.	16c/LL	.	8c/L	.	2r	.	2r	.	2r	.
16E/	.	.	16e/	.	.	.	.	.	.	.	.	.
16G/	.	.	16g/	.	16cc\L	.	.	.	.	.	.	.
16B-X/JJ	.	.	16b-X/JJ	.	16dd\JJ	.	.	.	.	.	.	.
16c\LL	.	.	16a/LL	.	16cc\LL	.	.	.	.	.	.	.
16B-X\	.	.	16g/	.	16b-X\	.	.	.	.	.	.	.
16A\	.	.	16f/	.	16a\	.	.	.	.	.	.	.
16G\JJ	.	.	16e/JJ	.	16g\JJ	.	.	.	.	.	.	.
=30	=30	=30	=30	=30	=30	=30	=30	=30	=30	=30	=30	=30
*tremolo	*	*	*	*	*	*	*	*	*	*	*	*
!LO:TX:a:i:t=Tutti	!	!	!LO:TX:i:a:t=Tutti	!	!LO:TX:a:i:t=Tutti	!	!	!	!	!	!	!
16F\L	.	.	8f/L	.	8a\L	.	8F/	Et	8f\	Et	8a\	Et
16F\	.	.	.	.	.	.	.	.	.	.	.	.
16F\	.	.	16f/L	.	16a\L	.	8F/	ex	16f\LL	ex	16a\LL	ex
16F\	.	.	16g/JJ	.	16b-\JJ	.	.	.	16g\JJ	.	16b-X\JJ	.
16F\	.	.	8a/L	.	8cc\L	.	8F/	Pa-	8a\	Pa-	8cc\	Pa-
16F\	.	.	.	.	.	.	.	.	.	.	.	.
16F\	.	.	8a/J	.	8cc\J	.	8F/	-tre	8a\	-tre	8cc\	-tre
16F\J	.	.	.	.	.	.	.	.	.	.	.	.
!	!	!	!	!	!LO:LB:g=original	!	!	!	!	!	!	!
=31	=31	=31	=31	=31	=31	=31	=31	=31	=31	=31	=31	=31
16F\L	6 4	.	8b-\	.	8dd\	.	8B-\	na-	8b-\	Na-	8dd\	na-
16F\	.	.	.	.	.	.	.	.	.	.	.	.
16F\	.	.	4dd\	.	4ff\	.	4f\	.	4dd\	.	4ff\	.
16F\	.	.	.	.	.	.	.	.	.	.	.	.
16F\	.	.	.	.	.	.	.	.	.	.	.	.
16F\	.	.	.	.	.	.	.	.	.	.	.	.
16F\	.	.	16cc\LL	.	16ee\LL	.	16e\LL	.	16cc\LL	.	16ee\LL	.
16F\J	.	.	16b-\JJ	.	16dd\JJ	.	16d\JJ	.	16b-\JJ	.	16dd\JJ	.
=32	=32	=32	=32	=32	=32	=32	=32	=32	=32	=32	=32	=32
16F\L	6 4	.	8.b-/L	.	8.dd\L	.	8.d\L	.	8.b-\L	.	8.dd\L	.
16F\	.	.	.	.	.	.	.	.	.	.	.	.
16F\	.	.	.	.	.	.	.	.	.	.	.	.
16F\J	.	.	32a/LL	.	32cc\LL	.	32c\LL	.	32a\LL	.	32cc\LL	.
.	.	.	32b-/JJJ	.	32dd\JJJ	.	32d\JJJ	.	32b-\JJJ	.	32dd\JJJ	.
16A\L	6	.	4a/	.	4cc\	.	4c\	-tum	4a\	-tum	4cc\	-tum
16A\	.	.	.	.	.	.	.	.	.	.	.	.
16A\	.	.	.	.	.	.	.	.	.	.	.	.
16A\J	.	.	.	.	.	.	.	.	.	.	.	.
*Xtremolo	*	*	*	*	*	*	*	*	*	*	*	*
=33	=33	=33	=33	=33	=33	=33	=33	=33	=33	=33	=33	=33
4B-\	.	.	16g/LL	.	16b-\LL	.	8B-\L	an-	16g\LL	an-	16b-\LL	an-
.	.	.	16a/	.	16cc\	.	.	.	16a\JJ	.	16cc\JJ	.
.	.	.	16b-/	.	16dd\	.	8B-\J	-te	16b-\LL	-te	16dd\LL	-te
.	.	.	16a/JJ	.	16cc\JJ	.	.	.	16a\JJ	.	16cc\JJ	.
4Bn\	.	.	16g/LL	.	16b-/LL	.	8Bn\	om-	16g\LL	om-	16b-\LL	om-
.	.	.	16f/	.	16a/	.	.	.	16f\JJ	.	16a\JJ	.
.	.	.	16e/	.	16g/	.	16B\LL	-nia	16e\	-ni-	16g\	-ni-
.	.	.	16f/JJ	.	16a/JJ	.	16B\JJ	.	16f\	-a	16a\	-a
!	!	!	!	!	!	!	!LO:LB:g=original	!	!LO:LB:g=original	!	!	!
=34	=34	=34	=34	=34	=34	=34	=34	=34	=34	=34	=34	=34
!LO:TX:a:t=P:problem=mixed beam	!	!	!	!	!	!	!	!	!	!	!	!
8c\L	.	.	8G/L 8e	.	8g/L	.	8c\	ſae-	8e\	sae-	8g\	sae-
8C/	.	.	8G/ 8e	.	8e/ 8cc	.	8G/	-cu-	8e\	-cu-	8cc\	-cu-
8C/J	.	.	8G/J 8e	.	8e/J 8cc	.	8G/	-la	8e\	-la	8cc\	-la
8r	.	.	16r	.	16r	.	8r	.	8r	.	8r	.
.	.	.	16e/	.	16cc\	.	.	.	.	.	.	.
!	!	!	!	!	!	!	!	!	!	!	!LO:LB:g=original	!
=35	=35	=35	=35	=35	=35	=35	=35	=35	=35	=35	=35	=35
!	!	!LO:DY:b	!	!LO:DY:a	!	!	!LO:TX:a:t=4	!	!LO:TX:a:i:t=Solo.	!	!LO:TX:a:t=7.	!
!	!	!LO:HP:b:i:t=pia	!	!	!	!	!	!	!	!	!LO:N:vis=00	!
!	!	!	!	!LO:HP:a:i:t=pia	!	!	!LO:N:vis=0	!	!	!	!	!
4C/	.	p	4c/	p	4b-/	.	0r	.	4b-\	De-	0r	.
4E\	.	.	4e/	.	8.g/L	.	.	.	8g\	-um	.	.
.	.	.	.	.	.	.	.	.	8e\	de	.	.
.	.	.	.	.	16e/Jk	.	.	.	.	.	.	.
=36	=36	=36	=36	=36	=36	=36	=36	=36	=36	=36	=36	=36
4F\	.	.	4f/	.	8.cc\L	.	.	.	8.cc\L	De-	.	.
.	.	.	.	.	16a\Jk	.	.	.	16a\Jk	.	.	.
4A\	.	.	4a/	.	16f/LL	.	.	.	8f\	-o	.	.
.	.	.	.	.	16a/	.	.	.	.	.	.	.
.	.	.	.	.	16b-/	.	.	.	8r	.	.	.
.	.	.	.	.	16cc/JJ	.	.	.	.	.	.	.
!LO:LB:g=original	!	!	!	!	!	!	!	!	!	!	!	!
!	!	!	!LO:LB:g=original	!	!	!	!	!	!	!	!	!
=37	=37	=37	=37	=37	=37	=37	=37	=37	=37	=37	=37	=37
!	!	!	!	!	!	!LO:DY:b	!	!	!	!	!	!
!	!	!	!	!	!	!LO:HP:b:i:t=pia:	!	!	!	!	!	!
4G\	.	.	4g/	.	4b-/	p	.	.	4b-\	lu-	.	.
4E\	.	.	4e/	.	8g/L	.	.	.	8g\	-men	.	.
.	.	.	.	.	8e/J	.	.	.	8e\	de	.	.
=38	=38	=38	=38	=38	=38	=38	=38	=38	=38	=38	=38	=38
4F\	.	.	4f/	.	8.cc\L	.	.	.	8.cc\	lu-	.	.
.	.	.	.	.	16a\Jk	.	.	.	16a\	-mi-	.	.
4A\	.	.	4a/	.	16f/LL	.	.	.	8f\	-ne	.	.
.	.	.	.	.	16a/	.	.	.	.	.	.	.
.	.	.	.	.	16cc/	.	.	.	8r	.	.	.
.	.	.	.	.	16ff/JJ	.	.	.	.	.	.	.
!	!	!	!	!	!	!	!	!	!	!	!LO:TX:b:t=P:problem=brak kreski taktowej	!
!	!	!	!	!	!LO:LB:g=original	!	!	!	!	!	!	!
=39	=39	=39	=39	=39	=39	=39	=39	=39	=39	=39	=39	=39
!	!	!	!	!	!	!	!	!	!LO:TX:a:t=4.	!	!LO:N:vis=0	!
!	!	!	!	!	!	!	!	!	!LO:N:vis=00	!	!	!
4B-\	.	.	8b-/L	.	16dd\LL	.	4d\	De-	0r	.	1r	.
.	.	.	.	.	16cc#X\	.	.	.	.	.	.	.
.	.	.	8f/	.	16dd\	.	.	.	.	.	.	.
.	.	.	.	.	16cc#\JJ	.	.	.	.	.	.	.
8r	.	.	8d/	.	16dd\LL	.	8f\L	-um	.	.	.	.
.	.	.	.	.	16ee\	.	.	.	.	.	.	.
8B-\	.	.	8b-/J	.	16ff\	.	8d\J	.	.	.	.	.
.	.	.	.	.	16dd\JJ	.	.	.	.	.	.	.
=40	=40	=40	=40	=40	=40	=40	=40	=40	=40	=40	=40	=40
4A\	.	.	4a/	.	8.cc\L	.	8c\L	ve-	.	.	.	.
.	.	.	.	.	.	.	8A\J	.	.	.	.	.
.	.	.	.	.	16a\Jk	.	.	.	.	.	.	.
4F\	.	.	4f/	.	8f/L	.	4F/	-rum	.	.	.	.
.	.	.	.	.	8cc/J	.	.	.	.	.	.	.
!	!	!	!	!	!	!	!	!	!	!	!LO:TX:b:t=P:problem=brak kreski taktowej	!
=41	=41	=41	=41	=41	=41	=41	=41	=41	=41	=41	=41	=41
!LO:TX:a:t=P:problem=mixed beam	!	!	!	!	!	!	!	!	!	!	!	!
8B-\L	.	.	16g/LL	.	16b-\LL	.	8B-\	de	.	.	2r	.
.	.	.	16a/	.	16cc\	.	.	.	.	.	.	.
8G\	.	.	16b-/	.	16dd\	.	8B-\	De-	.	.	.	.
.	.	.	16g/JJ	.	16b-\JJ	.	.	.	.	.	.	.
8c\	X 4	.	8f/L	.	8a/L	.	8A/	-o	.	.	.	.
8C/J	X 3	.	8c/J	.	8g/J	.	8G/	ve-	.	.	.	.
=42	=42	=42	=42	=42	=42	=42	=42	=42	=42	=42	=42	=42
!	!	!	!	!	!	!LO:HP:b:i:t=for.	!	!	!	!	!	!
!	!	!	!	!	!	!LO:DY:b	!	!	!	!	!	!
8F\	.	.	8A/	.	8f/	f	8F/	-ro	.	.	8r	.
8r	.	.	8r	.	8r	.	8r	.	.	.	8cc\	Ge-
4r	.	.	4r	.	4r	.	4r	.	.	.	8cc\	-ni-
.	.	.	.	.	.	.	.	.	.	.	8cc\	-tum
=43	=43	=43	=43	=43	=43	=43	=43	=43	=43	=43	=43	=43
8r	.	.	8r	.	8r	.	8r	.	8r	.	8cc\	non
8C/L	X 7_	.	8e/L	.	8g/L	.	8G/L	fa-	8e\L	fa-	4.cc\	fa-
8D/	.	.	8f/	.	8a/	.	8A/	.	8f\	.	.	.
8E/J	.	.	8g/J	.	8b-X/J	.	8B-/J	.	8g\J	.	.	.
!	!	!	!	!	!	!	!	!	!LO:LB:g=original	!	!	!
=44	=44	=44	=44	=44	=44	=44	=44	=44	=44	=44	=44	=44
8F\	x	.	8f/	.	8a/	.	8A/	-ctum	8f\	-ctum	8cc\	-ctum
8r	.	.	8r	.	8r	.	8r	.	8r	.	8cc\	con-
4r	.	.	4r	.	4r	.	4r	.	4r	.	8cc\	-sub-
.	.	.	.	.	.	.	.	.	.	.	8cc\	-stan-
!	!	!	!	!	!	!	!LO:LB:g=original	!	!	!	!	!
=45	=45	=45	=45	=45	=45	=45	=45	=45	=45	=45	=45	=45
8r	.	.	8r	.	8r	.	8r	.	8r	.	8cc\	-ti-
8C/L	X 7_	.	8e/L	.	8g/L	.	8G/L	Pa-	8e\L	Pa-	8cc\	-a-
8D/	.	.	8f/	.	8a/	.	8A/	.	8f\	.	8cc\	-lem
8E/J	.	.	8g/J	.	8b-/J	.	8B-/J	.	8g\J	.	8cc\	Pa-
=46	=46	=46	=46	=46	=46	=46	=46	=46	=46	=46	=46	=46
8F\L	x	.	8f/L	.	8a\L	.	8A/	-tri	8f\	-tri	8cc\	-tri
8F\	.	.	8a/	.	8ff\	.	8c\	per	8a\	per	8ff\	per
8F\	.	.	8a/	.	8ff\	.	8c\	quem	8a\	quem	8ff\	quem
8E\J	.	.	8g/J	.	8ee\J	.	8c\	om-	8g\	om-	8ee\	om-
=47	=47	=47	=47	=47	=47	=47	=47	=47	=47	=47	=47	=47
8F\L	6 4	.	8b-/L	.	16dd\LL	.	4B-\	-ni-	4f\	-ni-	4dd\	-ni-
.	.	.	.	.	16cc\	.	.	.	.	.	.	.
8G\	X 3	.	8g/	.	16dd\	.	.	.	.	.	.	.
.	.	.	.	.	16b-\JJ	.	.	.	.	.	.	.
!	!	!	!	!	!LO:LB:g=original	!	!	!	!	!	!	!
8F\	.	.	8a/	.	16cc\LL	.	4A\	-a	4f\	-a	4cc\	-a
.	.	.	.	.	16b-\	.	.	.	.	.	.	.
8A\J	X 6	.	8f/J	.	16cc\	.	.	.	.	.	.	.
.	.	.	.	.	16a\JJ	.	.	.	.	.	.	.
=48	=48	=48	=48	=48	=48	=48	=48	=48	=48	=48	=48	=48
!LO:TX:a:t=P:problem=mixed beam	!	!	!	!	!	!	!	!	!	!	!	!
8B-\L	X 6	.	16g/LL	.	16b-\LL	.	4B-\	fa-	4g\	fa-	4b-\	fa-
.	.	.	16a/	.	16cc\	.	.	.	.	.	.	.
8G\	.	.	16b-/	.	16dd\	.	.	.	.	.	.	.
.	.	.	16g/JJ	.	16b-\JJ	.	.	.	.	.	.	.
8c\	X 4	.	8f/L	.	8a/L	.	4c\	-cta	8f\L	-cta	8a\L	-cta-
8C/J	X 3	.	8c/J	.	8g/J	.	.	.	8c\J	.	8g\J	.
!LO:LB:g=original	!	!	!	!	!	!	!	!	!	!	!LO:LB:g=original	!
=49	=49	=49	=49	=49	=49	=49	=49	=49	=49	=49	=49	=49
8F\	.	.	8A/	.	8f/	.	8f\	sunt	8A/	sunt	8f/	-sunt.
8r	.	.	8r	.	8r	.	8c\	qui	8r	.	8r	.
4r	.	.	4r	.	4r	.	8c\	pro-	4r	.	4r	.
.	.	.	.	.	.	.	8c\	-pter	.	.	.	.
!	!	!	!LO:LB:g=original	!	!	!	!	!	!	!	!	!
=50	=50	=50	=50	=50	=50	=50	=50	=50	=50	=50	=50	=50
8r	.	.	8r	.	8r	.	8c\	nos	8r	.	8r	.
!LO:TX:i:a:t=Tutti	!	!	!	!	!	!	!	!	!	!	!	!
!	!	!	!	!	!	!	!	!	!	!LO:SIC:s=ho-	!	!
8C/L	.	.	16e/LL	.	16g/LL	.	4c\	ho-	8e\	No-	8g\	ho-
.	.	.	16e/JJ	.	16g/JJ	.	.	.	.	.	.	.
8D/	.	.	16f/LL	.	16a/LL	.	.	.	8f\L	-mi-	8a\	-mi-
.	.	.	16f/	.	16a/	.	.	.	.	.	.	.
8E/J	.	.	16g/	.	16b-/	.	8c\	-mi-	8g\J	.	8b-\	.
.	.	.	16g/JJ	.	16b-/JJ	.	.	.	.	.	.	.
=51	=51	=51	=51	=51	=51	=51	=51	=51	=51	=51	=51	=51
8F\	.	.	8a/	.	8a/	.	8c\	-nes	8f\	-nes	8a\	-nes
!	!	!	!	!	!	!	!LO:TX:a:t=c	!	!	!	!	!
8r	.	.	8r	.	8r	.	8c\	et	8r	.	8r	.
!	!	!	!	!	!	!	!LO:LB:g=original	!	!	!	!	!
4r	.	.	4r	.	4r	.	8c\	pro-	4r	.	4r	.
.	.	.	.	.	.	.	8c\	-pter	.	.	.	.
!	!	!	!	!	!	!	!	!	!LO:LB:g=original	!	!	!
=52	=52	=52	=52	=52	=52	=52	=52	=52	=52	=52	=52	=52
8r	.	.	8r	.	8r	.	8c\	no-	8r	.	8r	.
8C/L	.	.	16e/LL	.	16g/LL	.	4c\	-stram	8e\	ſa-	8g\	Sa-
.	.	.	16e/JJ	.	16g/JJ	.	.	.	.	.	.	.
8D/	.	.	16f/LL	.	16a/LL	.	.	.	8f\L	-lu-	8a\L	-lu-
.	.	.	16f/	.	16a/	.	.	.	.	.	.	.
8E/J	.	.	16g/	.	16b-/	.	8c\	ſa-	8g\J	.	8b-\J	.
.	.	.	16g/JJ	.	16b-/JJ	.	.	.	.	.	.	.
=53	=53	=53	=53	=53	=53	=53	=53	=53	=53	=53	=53	=53
8F\L	.	.	8f/L	.	8a\L	.	8c\	-lu-	4f\	-tem	4a\	-tem
8c\	.	.	32a/LL	.	32ff\LL	.	8c\	-tem	.	.	.	.
.	.	.	(<32g/	.	(>32ee\	.	.	.	.	.	.	.
.	.	.	32a/	.	32ff\	.	.	.	.	.	.	.
.	.	.	32b-/JJJ)	.	32gg\JJJ)	.	.	.	.	.	.	.
*	*	*	*tremolo	*	*tremolo	*	*	*	*	*	*	*
8A\	.	.	16a/L	.	16ff\L	.	8c\	de-	8a\	de-	8ff\	de-
.	.	.	16a/	.	16ff\	.	.	.	.	.	.	.
8F\J	.	.	16a/	.	16ff\	.	16c\	-scen-	16a\	-scen-	16ff\	-scen-
.	.	.	16a/J	.	16ff\J	.	16c\	-dit	16a\	-dit	16ff\	-dit
*	*	*	*Xtremolo	*	*Xtremolo	*	*	*	*	*	*	*
=54	=54	=54	=54	=54	=54	=54	=54	=54	=54	=54	=54	=54
*	*	*	*^	*	*	*	*	*	*	*	*	*
!LO:TX:a:t=P:problem=mixed beam	!	!	!	!	!	!	!	!	!	!	!	!	!
8c\L	.	.	4a/	4f\	.	4f/ 4a 4ff	.	4c\	de	4a\	de	4ff\	de
8c\	.	.	.	.	.	.	.	.	.	.	.	.	.
8C/	.	.	4g/	4c/	.	4g/ 4b- 4ee	.	4c\	Cae-	4g\	Cae-	4ee\	cae-
8C/J	.	.	.	.	.	.	.	.	.	.	.	.	.
=55	=55	=55	=55	=55	=55	=55	=55	=55	=55	=55	=55	=55	=55
4F\	.	.	4a/	4f\	.	4f/ 4a 4ff	.	4c\	-lis	4a\	-lis	4ff\	-lis
!	!	!	!	!	!	!LO:TX:b:i:t=Et. Incarnatus Vertatur	!	!	!	!	!	!	!
4r	.	.	4r	4ryy	.	4r	.	4r	.	4r	.	4r	.
*	*	*	*v	*v	*	*	*	*	*	*	*	*	*
!LO:LB:g=original	!	!	!	!	!	!	!	!	!	!	!	!
!	!	!	!LO:LB:g=original	!	!LO:PB:g=original	!	!	!LO:LB:g=original	!	!	!	!
=56||;>	=56||	=56||	=56||	=56||	=56||	=56||	=56||	=56||	=56||	=56||	=56||	=56||
*clefF4	*	*	*clefG2	*	*clefG2	*	*	*	*	*	*clefC1	*
*k[b-e-]	*	*	*k[b-e-]	*	*k[b-e-]	*	*	*	*	*	*k[b-e-]	*
*B-:	*	*	*B-:	*	*B-:	*	*	*	*	*	*B-:	*
*M3/4	*	*	*M3/4	*	*M3/4	*	*	*	*	*	*M3/4	*
!LO:TX:a:t=P:problem=znaki przykluczowe&colon; B- E-	!	!	!LO:TX:a:t=P:problem=klucz G2 przed znakami przykluczowymi	!	!LO:TX:a:t=P:problem=klucz G2 przed znakami przykluczowymi	!	!	!	!LO:TX:a:t=P:problem=zapis "Et Incarnatus Tacett" na pięciolinii	!	!LO:TX:a:t=P:problem=znaki przykluczowe&colon; b- ee-	!
!LO:TX:a:t=P:problem=klucz F4 przed znakami przykluczowymi	!	!	!	!	!	!	!	!	!	!	!LO:TX:a:t=P:problem=klucz C1 przed znakami przykluczowymi	!
!LO:TX:i:a:t=andante	!	!	!LO:TX:i:b:t=Et in Carnatus	!	!LO:TX:i:b:t=Et In Carna tu&colon;	!	!	!	!	!	!	!
!LO:TX:a:t=P:problem=zapis "Et In Carnatus" na pięciolinii przed rozpoczeciem części	!	!	!	!	!	!LO:N:vis=00	!	!	!	!	!	!
!LO:TX:a:i:t=Et In Carnatus:rj	!	!	!LO:TX:a:i:t=andante	!	!LO:TX:i:a:t=Andante	!	!LO:TX:b:i:t=Et Incarnatus Tacett	!	!LO:TX:i:a:t=Et Incarnatus Tacett	!	!LO:TX:a:t=8	!
8r	.	.	8r	.	4ff\	.	2.ryy	.	2.ryy	.	0.r	.
8B-\L	.	.	8d/L	.	.	.	.	.	.	.	.	.
8B-\	.	.	8d/	.	16ff\LL	.	.	.	.	.	.	.
.	.	.	.	.	16dd\	.	.	.	.	.	.	.
8B-\J	.	.	8d/J	.	16cc\	.	.	.	.	.	.	.
.	.	.	.	.	16b-\JJ	.	.	.	.	.	.	.
!	!	!	!LO:TX:a:t=P:problem=mixed beam	!	!	!	!	!	!	!	!	!
8B-\	.	.	16d/LL	.	16b-\LL	.	.	.	.	.	.	.
.	.	.	16gg\	.	16bb-\	.	.	.	.	.	.	.
8r	.	.	16ff\	.	16aa\	.	.	.	.	.	.	.
.	.	.	16ee-\JJ	.	16gg\JJ	.	.	.	.	.	.	.
=57	=57	=57	=57	=57	=57	=57	=57	=57	=57	=57	=57	=57
4B-\	6 4	.	8.ee-\L	.	8.gg\L	.	2.ryy	.	2.ryy	.	.	.
.	.	.	32dd\LL	.	32ff\LL	.	.	.	.	.	.	.
.	.	.	32ee-\JJJ	.	32gg\JJJ	.	.	.	.	.	.	.
4BB-/	5 3	.	8dd\L	.	8ff\L	.	.	.	.	.	.	.
.	.	.	8b-\J	.	8ff\J	.	.	.	.	.	.	.
4r	.	.	16g/LL	.	16ee-\LL	.	.	.	.	.	.	.
.	.	.	16f/	.	16dd\	.	.	.	.	.	.	.
.	.	.	16e-/	.	16cc\	.	.	.	.	.	.	.
.	.	.	16d/JJ	.	16b-\JJ	.	.	.	.	.	.	.
=58	=58	=58	=58	=58	=58	=58	=58	=58	=58	=58	=58	=58
*tremolo	*	*	*tremolo	*	*	*	*	*	*	*	*	*
8E-\L	X 6	.	8e-/L	.	16cc\LL	.	2.ryy	.	2.ryy	.	.	.
.	.	.	.	.	16bn\	.	.	.	.	.	.	.
8E-\	.	.	8e-/	.	16cc\	.	.	.	.	.	.	.
.	.	.	.	.	16dd\JJ	.	.	.	.	.	.	.
8E-\	.	.	8e-/	.	16ee-\LL	.	.	.	.	.	.	.
.	.	.	.	.	16dd\	.	.	.	.	.	.	.
8E-\J	.	.	8e-/J	.	16ee-\	.	.	.	.	.	.	.
.	.	.	.	.	16cc\JJ	.	.	.	.	.	.	.
*Xtremolo	*	*	*Xtremolo	*	*	*	*	*	*	*	*	*
8F\L	6 4	.	8f/L	.	16b-X/LL	.	.	.	.	.	.	.
.	.	.	.	.	16a/	.	.	.	.	.	.	.
8F\J	5 3	.	8f/J	.	16g/	.	.	.	.	.	.	.
.	.	.	.	.	16f/JJ	.	.	.	.	.	.	.
=59	=59	=59	=59	=59	=59	=59	=59	=59	=59	=59	=59	=59
!	!	!	!LO:TX:a:t=P:problem=mixed beam	!	!	!	!	!	!	!	!	!
4B-\	.	.	8d/L	.	8b-\L	.	2.ryy	.	2.ryy	.	.	.
.	.	.	8dd\	.	8ff\	.	.	.	.	.	.	.
4r	.	.	8dd\	.	8ff\	.	.	.	.	.	.	.
.	.	.	8dd\J	.	8ff\	.	.	.	.	.	.	.
4r	.	.	8cc\L	.	8ee-\	.	.	.	.	.	.	.
.	.	.	8b-\J	.	8dd\J	.	.	.	.	.	.	.
=60	=60	=60	=60	=60	=60	=60	=60	=60	=60	=60	=60	=60
!	!	!	!	!	!	!	!	!	!	!	!LO:N:vis=00	!
8r	.	.	8r	.	16gg\LL	.	2.ryy	.	2.ryy	.	0.r	.
.	.	.	.	.	16ee-\JJ	.	.	.	.	.	.	.
8E-\L	5_ 3_	.	8g/L	.	4b-\	.	.	.	.	.	.	.
8E-\	.	.	8g/	.	.	.	.	.	.	.	.	.
8E-\J	.	.	8g/J	.	8ee-\	.	.	.	.	.	.	.
8E-\	.	.	8g/	.	16gg\LL	.	.	.	.	.	.	.
.	.	.	.	.	16ee-\	.	.	.	.	.	.	.
8r	x	.	8r	.	16bb-\	.	.	.	.	.	.	.
.	.	.	.	.	16gg\JJ	.	.	.	.	.	.	.
=61	=61	=61	=61	=61	=61	=61	=61	=61	=61	=61	=61	=61
8r	.	.	8r	.	16ff\LL	.	2.ryy	.	2.ryy	.	.	.
.	.	.	.	.	16dd\JJ	.	.	.	.	.	.	.
!	!	!	!	!	!LO:LB:g=original	!	!	!	!	!	!	!
8D\L	X 6_	.	8f/L	.	4b-\	.	.	.	.	.	.	.
8D\	.	.	8f/	.	.	.	.	.	.	.	.	.
8D\J	.	.	8f/J	.	8dd\	.	.	.	.	.	.	.
8D\	.	.	8f/	.	16ff\LL	.	.	.	.	.	.	.
.	.	.	.	.	16dd\	.	.	.	.	.	.	.
8r	x	.	8r	.	16bb-\	.	.	.	.	.	.	.
.	.	.	.	.	16ff\JJ	.	.	.	.	.	.	.
=62	=62	=62	=62	=62	=62	=62	=62	=62	=62	=62	=62	=62
*tremolo	*	*	*	*	*	*	*	*	*	*	*	*
8E-\L	.	.	4g/	.	4ee-\	.	2.ryy	.	2.ryy	.	.	.
8E-\	.	.	.	.	.	.	.	.	.	.	.	.
8E-\	.	.	8r	.	8r	.	.	.	.	.	.	.
8E-\J	.	.	8g/L	.	8ee-\L	.	.	.	.	.	.	.
*Xtremolo	*	*	*	*	*	*	*	*	*	*	*	*
8F\L	6 4	.	8e-/	.	8dd\	.	.	.	.	.	.	.
8F\J	5 3	.	8c/J	.	8a\J	.	.	.	.	.	.	.
=63	=63	=63	=63	=63	=63	=63	=63	=63	=63	=63	=63	=63
!LO:TX:b:i:t=Finis	!	!	!LO:TX:b:i:t=Fine	!	!LO:TX:b:i:t=Fine	!	!	!	!	!	!	!
4B-\	.	.	4d/	.	4d/ 4b-	.	2.ryy	.	2.ryy	.	.	.
4BB-/	.	.	4d/	.	4d/ 4b-	.	.	.	.	.	.	.
4r	.	.	4r	.	4r	.	.	.	.	.	.	.
!LO:LB:g=original	!	!	!LO:TX:a:t=P:problem=podwójna kreska z fermatą	!	!LO:TX:a:t=P:problem=podwójna kreska z fermatą	!	!	!	!	!	!	!
!	!	!	!LO:LB:g=original	!	!	!	!	!	!	!	!	!
=64	=64	=64	=64||;>	=64||	=64||;>	=64||	=64	=64	=64	=64	=64	=64
!	!	!LO:HP:b:i:t=pia	!	!	!	!	!	!	!	!	!	!
!	!	!LO:DY:b	!	!	!	!	!	!	!	!	!LO:TX:i:a:t=adagio	!
8r	.	p	8r	.	8r	.	2.ryy	.	2.ryy	.	4ff\	Et
8B-\L	.	.	8d/L	.	8b-\L	.	.	.	.	.	.	.
8B-\	.	.	8d/	.	8b-\	.	.	.	.	.	16ff\LL	In-
.	.	.	.	.	.	.	.	.	.	.	16dd\	.
8B-\J	.	.	8d/J	.	8b-\J	.	.	.	.	.	16cc\	.
.	.	.	.	.	.	.	.	.	.	.	16b-\JJ	.
!	!	!	!	!	!	!	!	!	!	!	!LO:LB:g=original	!
8B-\	.	.	8d/	.	16b-\LL	.	.	.	.	.	16a\LL	-car-
.	.	.	.	.	16gg\	.	.	.	.	.	16bb-\	.
8r	.	.	8r	.	16ff\	.	.	.	.	.	16aa\	.
.	.	.	.	.	16ee-\JJ	.	.	.	.	.	16gg\JJ	.
=65	=65	=65	=65	=65	=65	=65	=65	=65	=65	=65	=65	=65
4B-\	6 4	.	4e-/	.	8.ee-\L	.	2.ryy	.	2.ryy	.	8.gg\	-na-
.	.	.	.	.	32dd\LL	.	.	.	.	.	32ff\LLL	-tus
.	.	.	.	.	32ee-\JJJ	.	.	.	.	.	32gg\JJJ	.
4B-\	5 0	.	4d/	.	8dd\L	.	.	.	.	.	4ff\	est
.	.	.	.	.	8dd\J	.	.	.	.	.	.	.
4r	.	.	4r	.	16g/LL	.	.	.	.	.	16ee-\LL	de
.	.	.	.	.	16f/	.	.	.	.	.	16dd\	.
.	.	.	.	.	16e-/	.	.	.	.	.	16cc\	.
.	.	.	.	.	16d/JJ	.	.	.	.	.	16b-\JJ	.
=66	=66	=66	=66	=66	=66	=66	=66	=66	=66	=66	=66	=66
*tremolo	*	*	*tremolo	*	*tremolo	*	*	*	*	*	*	*
8E-\L	X 6	.	8c/L	.	8e-/L	.	2.ryy	.	2.ryy	.	16cc\LL	Spi-
.	.	.	.	.	.	.	.	.	.	.	16bn\	.
8E-\	.	.	8c/	.	8e-/	.	.	.	.	.	16cc\	.
.	.	.	.	.	.	.	.	.	.	.	16dd\JJ	.
8E-\	.	.	8c/	.	8e-/	.	.	.	.	.	16ee-\LL	-ri-
.	.	.	.	.	.	.	.	.	.	.	16dd\JJ	.
8E-\J	.	.	8c/J	.	8e-/J	.	.	.	.	.	16ee-\LL	-tu
.	.	.	.	.	.	.	.	.	.	.	16cc\JJ	.
*Xtremolo	*	*	*Xtremolo	*	*Xtremolo	*	*	*	*	*	*	*
8F\L	6 4	.	8d/L	.	8f/L	.	.	.	.	.	16b-X/LL	San-
.	.	.	.	.	.	.	.	.	.	.	16a/	.
8F\J	5 3	.	8c/J	.	8f/J	.	.	.	.	.	16g/	.
.	.	.	.	.	.	.	.	.	.	.	16f/JJ	.
=67	=67	=67	=67	=67	=67	=67	=67	=67	=67	=67	=67	=67
!	!	!	!LO:TX:a:t=P:problem=mixed beam	!	!	!	!	!	!	!	!	!
4B-\	.	.	8d/L	.	8b-\L	.	2.ryy	.	2.ryy	.	4b-\	-cto
.	.	.	8dd\J	.	8ff\J	.	.	.	.	.	.	.
4r	.	.	(>8dd\L	.	8ff\L	.	.	.	.	.	4r	.
.	.	.	8cc\	.	(>8ee-\	.	.	.	.	.	.	.
4r	.	.	8cc\	.	8ee-\	.	.	.	.	.	4r	.
.	.	.	8b-\J)	.	8dd\J)	.	.	.	.	.	.	.
=68	=68	=68	=68	=68	=68	=68	=68	=68	=68	=68	=68	=68
8r	.	.	8r	.	8r	.	2.ryy	.	2.ryy	.	4gg\	ex
8E-\L	.	.	8e-/L	.	8e-/L	.	.	.	.	.	.	.
8E-\	.	.	8e-/	.	8e-/	.	.	.	.	.	16gg\LL	Ma-
.	.	.	.	.	.	.	.	.	.	.	16aa\	.
8E-\J	.	.	8e-/J	.	8e-/J	.	.	.	.	.	16bb-\	.
.	.	.	.	.	.	.	.	.	.	.	16aa\JJ	.
8E-\	.	.	8e-/	.	8e-/	.	.	.	.	.	16gg\LL	-ri-
.	.	.	.	.	.	.	.	.	.	.	16ff\JJ	.
8r	.	.	8r	.	8r	.	.	.	.	.	16ee-\LL	-a
.	.	.	.	.	.	.	.	.	.	.	16dd\JJ	.
!	!	!	!	!	!LO:LB:g=original	!	!	!	!	!	!	!
=69	=69	=69	=69	=69	=69	=69	=69	=69	=69	=69	=69	=69
8r	.	.	8r	.	8r	.	2.ryy	.	2.ryy	.	4ee-\	Vir-
8C/L	.	.	8c/L	.	8c/L	.	.	.	.	.	.	.
8C/	.	.	8c/	.	8c/	.	.	.	.	.	16ee-\LL	-gi-
.	.	.	.	.	.	.	.	.	.	.	16ff\	.
8C/J	.	.	8c/J	.	8c/J	.	.	.	.	.	16gg\	.
.	.	.	.	.	.	.	.	.	.	.	16ff\JJ	.
8C/	.	.	8c/	.	8c/	.	.	.	.	.	16ee-\LL	-ne
.	.	.	.	.	.	.	.	.	.	.	16dd\	.
8r	.	.	8r	.	8r	.	.	.	.	.	16cc\	.
.	.	.	.	.	.	.	.	.	.	.	16bn\JJ	.
!	!	!	!	!	!	!	!	!	!	!	!LO:LB:g=original	!
=70	=70	=70	=70	=70	=70	=70	=70	=70	=70	=70	=70	=70
8r	.	.	8r	.	8r	.	2.ryy	.	2.ryy	.	4cc\	et
8AA/L	.	.	8A/L	.	8A/L	.	.	.	.	.	.	.
8AA/	.	.	8A/	.	8A/	.	.	.	.	.	16cc\LL	ho-
.	.	.	.	.	.	.	.	.	.	.	16dd\	.
8AA/J	.	.	8A/J	.	8A/J	.	.	.	.	.	16ee-\	.
.	.	.	.	.	.	.	.	.	.	.	16dd\JJ	.
8AA/	.	.	8A/	.	8A/	.	.	.	.	.	16cc\LL	-mo
.	.	.	.	.	.	.	.	.	.	.	16b-X\	.
8r	.	.	8r	.	8r	.	.	.	.	.	16a\	.
.	.	.	.	.	.	.	.	.	.	.	16g\JJ	.
=71	=71	=71	=71	=71	=71	=71	=71	=71	=71	=71	=71	=71
8F\L	.	.	8f/L	.	4f/	.	2.ryy	.	2.ryy	.	4f/	fa-
8A\	.	.	8a/	.	.	.	.	.	.	.	.	.
8c\	.	.	8a/	.	4f/	.	.	.	.	.	8ff\	-ctus
8B-\	.	.	8g/	.	.	.	.	.	.	.	8ff\	est
8A\	.	.	8f/	.	4r	.	.	.	.	.	4r	.
8G\J	.	.	8c/J	.	.	.	.	.	.	.	.	.
=72	=72	=72	=72	=72	=72	=72	=72	=72	=72	=72	=72	=72
!	!	!LO:HP:b:i:t=f.	!	!	!	!	!	!	!	!	!	!
!	!	!LO:DY:b	!	!	!	!	!	!	!	!	!	!
4F\	.	f	4A/	.	4a/	.	2.ryy	.	2.ryy	.	4f/	Cru-
4A\	.	.	4a/	.	4ff\	.	.	.	.	.	8ff\	-ci-
.	.	.	.	.	.	.	.	.	.	.	8ff\	-fi-
4c\	.	.	4g/	.	4een\	.	.	.	.	.	4een\	-xus
!LO:LB:g=original	!	!	!	!	!	!	!	!	!	!	!	!
!	!	!	!LO:LB:g=original	!	!	!	!	!	!	!	!	!
=73	=73	=73	=73	=73	=73	=73	=73	=73	=73	=73	=73	=73
4F\	.	.	8.a/L	.	8.ff\L	.	2.ryy	.	2.ryy	.	8ff\L	e-
.	.	.	.	.	.	.	.	.	.	.	16een\L	.
.	.	.	32a/LL	.	32een\LL	.	.	.	.	.	16dd\JJ	.
.	.	.	32b-/JJJ	.	32dd\JJJ	.	.	.	.	.	.	.
8r	.	.	16a/LL	.	16cc\LL	.	.	.	.	.	16cc\LL	-ti-
.	.	.	16b-/	.	16dd\	.	.	.	.	.	16dd\	.
8F\L	.	.	16a/	.	16cc\	.	.	.	.	.	16cc\	.
.	.	.	16b-/JJ	.	16dd\JJ	.	.	.	.	.	16dd\JJ	.
8A\	.	.	8a/L	.	8cc\L	.	.	.	.	.	8cc\	-am
8c\J	.	.	8f/J	.	8ff\J	.	.	.	.	.	8ff\	pro
=74	=74	=74	=74	=74	=74	=74	=74	=74	=74	=74	=74	=74
4c\	6 4	.	8.d/L	.	8.b-/L	.	2.ryy	.	2.ryy	.	8.dd\L	no-
.	.	.	32c/LL	.	32a/LL	.	.	.	.	.	32cc\LL	.
.	.	.	32d/JJJ	.	32b-/JJJ	.	.	.	.	.	32dd\JJJ	.
*	*	*	*	*	*tremolo	*	*	*	*	*	*	*
4C/	5 3	.	8c/L	.	8a/L	.	.	.	.	.	4cc\	-bis
.	.	.	8c/	.	8a/	.	.	.	.	.	.	.
4r	.	.	8f/	.	8a/	.	.	.	.	.	4ff\	sub
.	.	.	8f/J	.	8a/J	.	.	.	.	.	.	.
*	*	*	*	*	*Xtremolo	*	*	*	*	*	*	*
=75	=75	=75	=75	=75	=75	=75	=75	=75	=75	=75	=75	=75
4C/	.	.	4c/	.	4c/	.	2.ryy	.	2.ryy	.	16een\LL	Pon-
.	.	.	.	.	.	.	.	.	.	.	16ff\	.
.	.	.	.	.	.	.	.	.	.	.	16gg\	.
.	.	.	.	.	.	.	.	.	.	.	16ff\JJ	.
!	!	!	!	!	!	!	!	!	!	!	!LO:LB:g=original	!
4D/	.	.	4d/	.	4d/	.	.	.	.	.	16een\LL	-ti-
.	.	.	.	.	.	.	.	.	.	.	16ff\	.
.	.	.	.	.	.	.	.	.	.	.	16ee\	.
.	.	.	.	.	.	.	.	.	.	.	16dd\JJ	.
4En/	.	.	4en/	.	4en/	.	.	.	.	.	16cc\LL	-o
.	.	.	.	.	.	.	.	.	.	.	16dd\JJ	.
.	.	.	.	.	.	.	.	.	.	.	16cc\LL	Pi-
.	.	.	.	.	.	.	.	.	.	.	16b-\JJ	.
=76	=76	=76	=76	=76	=76	=76	=76	=76	=76	=76	=76	=76
!	!	!	!LO:SIC:s=4en	!	!	!	!	!	!	!	!	!
4F\	4 2	.	4e-/	.	4g/	.	2.ryy	.	2.ryy	.	4b-\	-la-
4F\	X 3	.	4f/	.	4f/	.	.	.	.	.	4a\	-to
4r	.	.	4r	.	8a/L	.	.	.	.	.	8a\	Paſ-
.	.	.	.	.	8b-/J	.	.	.	.	.	8b-\	-sus
=77	=77	=77	=77	=77	=77	=77	=77	=77	=77	=77	=77	=77
*	*	*	*	*	*2\right	*	*	*	*	*	*2\right	*
8r	.	.	8r	.	2cc\	.	2.ryy	.	2.ryy	.	2ee-X\	et
8F\L	.	.	8f/L	.	.	.	.	.	.	.	.	.
8G\	.	.	8g/	.	.	.	.	.	.	.	.	.
8A\	.	.	8a/	.	.	.	.	.	.	.	.	.
8B-\	.	.	8b-/	.	4b-\	.	.	.	.	.	4dd\	se-
8D\J	.	.	8f/J	.	.	.	.	.	.	.	.	.
!	!	!	!	!	!LO:LB:g=original	!	!	!	!	!	!	!
=78	=78	=78	=78	=78	=78	=78	=78	=78	=78	=78	=78	=78
8r	.	.	8r	.	4cc\	.	2.ryy	.	2.ryy	.	2cc\	-pul-
8E-\L	.	.	8f/	.	.	.	.	.	.	.	.	.
*	*	*	*tremolo	*	*	*	*	*	*	*	*	*
8E-\	.	.	8f/L	.	4cc\	.	.	.	.	.	.	.
8E-\J	.	.	8f/	.	.	.	.	.	.	.	.	.
8F\L	.	.	8f/	.	4ee-X\	.	.	.	.	.	8bn\L	-tus
8F\J	.	.	8f/J	.	.	.	.	.	.	.	8cc\J	.
*	*	*	*Xtremolo	*	*	*	*	*	*	*	*	*
!	!	!	!	!	!	!	!LO:TX:a:t=P:problem=brak podwójnej kreski	!	!LO:TX:a:t=P:problem=brak podwójnej kreski	!	!LO:TX:a:t=P:problem=brak podwójnej kreski	!
=79||	=79||	=79||	=79||	=79||	=79	=79	=79	=79	=79	=79	=79	=79
!	!	!	!LO:TX:b:t=P:problem= napis "Da Capo  ad Finis na pięciolinii	!	!	!	!	!	!	!	!	!
!	!	!	!LO:TX:i:b:t=Da Capo  ad \nFinis	!	!LO:TX:b:t=P:zapis:problem= "Da Capo  ad Finem" na pięciolinii	!	!	!	!	!	!	!
!	!	!	!	!	!LO:TX:i:b:t=Da Capo  ad Finem	!	!	!	!	!	!	!
!LO:TX:a:t=P:problem=zapis "Da Capo ad Finis" na pięciolinii	!	!	!	!	!	!	!	!	!	!	!	!
!LO:TX:i:a:t=Da Capo ad Finis.	!	!	!	!	!	!	!	!	!	!	!	!
2.ryy	.	.	2.ryy	.	2.ryy	.	2.ryy	.	2.ryy	.	4b-X\	est
.	.	.	.	.	.	.	.	.	.	.	4r	.
.	.	.	.	.	.	.	.	.	.	.	4r	.
=80	=80	=80	=80	=80	=80	=80	=80	=80	=80	=80	=80	=80
!	!	!	!LO:TX:a:t=P:problem=brak pauzy wielotaktowej w źródle	!	!LO:TX:a:t=P:problem=brak pauzy wielotaktowej w źródle	!	!	!	!LO:TX:a:t=P:problem=brak pauzy wielotaktowej w źródle	!	!LO:TX:a:t=P::problem=nad pauzą wielotaktową oznaczenie&colon; "7."	!
2.ryy	.	.	2.ryy	.	2.ryy	.	2.ryy	.	2.ryy	.	2.r	.
=81	=81	=81	=81	=81	=81	=81	=81	=81	=81	=81	=81	=81
2.ryy	.	.	2.ryy	.	2.ryy	.	2.ryy	.	2.ryy	.	2.r	.
=82	=82	=82	=82	=82	=82	=82	=82	=82	=82	=82	=82	=82
2.ryy	.	.	2.ryy	.	2.ryy	.	2.ryy	.	2.ryy	.	2.r	.
=83	=83	=83	=83	=83	=83	=83	=83	=83	=83	=83	=83	=83
2.ryy	.	.	2.ryy	.	2.ryy	.	2.ryy	.	2.ryy	.	2.r	.
=84	=84	=84	=84	=84	=84	=84	=84	=84	=84	=84	=84	=84
2.ryy	.	.	2.ryy	.	2.ryy	.	2.ryy	.	2.ryy	.	2.r	.
=85	=85	=85	=85	=85	=85	=85	=85	=85	=85	=85	=85	=85
2.ryy	.	.	2.ryy	.	2.ryy	.	2.ryy	.	2.ryy	.	2.r	.
=86	=86	=86	=86	=86	=86	=86	=86	=86	=86	=86	=86	=86
!	!	!	!LO:TX:i:b:t=Et Resurexit Vertatur.	!	!	!	!	!	!	!	!	!
2.ryy	.	.	2.ryy	.	2.ryy	.	2.ryy	.	2.ryy	.	2.r	.
!LO:LB:g=original	!	!	!	!	!	!	!	!	!	!	!LO:LB:g=original	!
!	!	!	!LO:PB:g=original	!	!	!	!	!	!LO:LB:g=original	!	!	!
=87	=87	=87	=87||	=87||	=87||	=87||	=87	=87	=87||	=87||	=87||	=87||
*clefF4	*	*	*clefG2	*	*clefG2	*	*clefC4	*	*clefC3	*	*clefC1	*
*k[b-]	*	*	*k[b-]	*	*k[b-]	*	*k[b-]	*	*k[b-]	*	*k[b-]	*
*F:	*	*	*F:	*	*F:	*	*F:	*	*F:	*	*F:	*
*M2/4	*	*	*M2/4	*	*M2/4	*	*M2/4	*	*M2/4	*	*M2/4	*
*tremolo	*	*	*	*	*	*	*	*	*	*	*	*
!LO:TX:a:t=P:problem=klucz F4 przed znakami przykluczowymi	!	!	!LO:TX:a:t=P:problem=klucz G2 przed znakami przykluczowymi	!	!LO:TX:a:t=P:problem=klucz G2 przed znakami przykluczowymi	!	!LO:TX:a:t=P:problem=klucz C4 przed znakami przykluczowymi	!	!LO:TX:a:t=P:problem=klucz C3 przed znakami przykluczowymi	!	!LO:TX:a:t=P:problem=klucz C1 przed znakami przykluczowymi	!
!LO:TX:b:i:t=Et Resurexit	!	!	!LO:TX:b:i:t=Et Resurexit.	!	!LO:TX:i:b:t=Et Resurexit	!	!	!	!	!	!	!
!LO:TX:i:a:t=all(egr)o. Mode&colon;(rato)	!	!	!LO:TX:i:a:t=all(egr)o.	!	!LO:TX:a:i:t=All(egr)o	!	!LO:TX:i:a:t=all(egr)o.	!	!LO:TX:i:a:t=all(egr)o.	!	!LO:TX:i:a:t=all(egr)o.	!
16F\L	.	.	8f/L	.	8a\L 8ff	.	8F/	Et	8f\	Et	8a\	Et
16F\	.	.	.	.	.	.	.	.	.	.	.	.
16F\	.	.	16f/L	.	16a\L	.	16F/	Re-	16f\	Re-	16a\	re-
16F\	.	.	16g/JJ	.	16b-\JJ	.	16F/	-sur-	16g\	-sur-	16b-\	-sur-
16F\	.	.	8a/L	.	8cc\L	.	8F/	-re-	8a\	-re-	8cc\	-re-
16F\	.	.	.	.	.	.	.	.	.	.	.	.
16F\	.	.	8a/J	.	8cc\J	.	8F/	-xit	8a\	-xit	8cc\	-xit
16F\J	.	.	.	.	.	.	.	.	.	.	.	.
=88	=88	=88	=88	=88	=88	=88	=88	=88	=88	=88	=88	=88
16F\L	6 4	.	8b-\	.	8dd\	.	8B-\	ter-	8b-\	ter-	8dd\	ter-
16F\	.	.	.	.	.	.	.	.	.	.	.	.
16F\	.	.	4dd\	.	4ff\	.	4f\	-ti-	4dd\	-ti-	4ff\	-ti-
16F\	.	.	.	.	.	.	.	.	.	.	.	.
16F\	.	.	.	.	.	.	.	.	.	.	.	.
16F\	.	.	.	.	.	.	.	.	.	.	.	.
16F\	.	.	16cc\LL	.	16ee\LL	.	16e\LL	-a	16cc\LL	-a	16ee\LL	-a
16F\J	.	.	16b-\JJ	.	16dd\JJ	.	16d\JJ	.	16b-\JJ	.	16dd\JJ	.
=89	=89	=89	=89	=89	=89	=89	=89	=89	=89	=89	=89	=89
16F\L	6 4	.	8.b-/L	.	8.dd\L	.	8.d\L	di-	8.b-\L	di-	8.dd\L	di-
16F\	.	.	.	.	.	.	.	.	.	.	.	.
16F\	.	.	.	.	.	.	.	.	.	.	.	.
16F\J	.	.	32a/LL	.	32cc\LL	.	32c\LL	.	32a\LL	.	32cc\LL	.
.	.	.	32b-/JJJ	.	32dd\JJJ	.	32d\JJJ	.	32b-\JJJ	.	32dd\JJJ	.
16A\L	X 6	.	8a/L	.	4cc\	.	4c\	-e	4a\	-e	4cc\	-e
16A\	.	.	.	.	.	.	.	.	.	.	.	.
16A\	.	.	8a/J	.	.	.	.	.	.	.	.	.
16A\J	.	.	.	.	.	.	.	.	.	.	.	.
*Xtremolo	*	*	*	*	*	*	*	*	*	*	*	*
=90	=90	=90	=90	=90	=90	=90	=90	=90	=90	=90	=90	=90
4B-\	.	.	16g/LL	.	16b-\LL	.	4B-\	ſe-	16g\LL	ſe-	16b-\LL	ſe-
.	.	.	16a/	.	16cc\	.	.	.	16a\	.	16cc\	.
.	.	.	16b-/	.	16dd\	.	.	.	16b-\	.	16dd\	.
.	.	.	16a/JJ	.	16cc\JJ	.	.	.	16a\JJ	.	16cc\JJ	.
4Bn\	.	.	16g/LL	.	16b-/LL	.	8Bn\	-cun-	16g\LL	-cun-	16b-\LL	-cun-
.	.	.	16f/	.	16a/	.	.	.	16f\JJ	.	16a\JJ	.
.	.	.	16e/	.	16g/	.	8B\	-dum	16e\LL	-dum	16g\LL	-dum
.	.	.	16f/JJ	.	16a/JJ	.	.	.	16f\JJ	.	16a\JJ	.
!	!	!	!	!	!LO:LB:g=original	!	!	!	!	!	!	!
=91	=91	=91	=91	=91	=91	=91	=91	=91	=91	=91	=91	=91
!LO:TX:a:t=P:problem=mixed beam	!	!	!	!	!	!	!	!	!	!	!	!
8c\L	.	.	8G/L 8e	.	8g/L	.	8c\	ſcri-	8e\	scri-	8g\	ſcri-
8C/	.	.	8G/ 8e	.	8e/ 8cc	.	8G/	-ptu-	8e\	-ptu-	8dd\	-ptu-
8C/J	.	.	8G/J 8e	.	8e/J 8cc	.	8G/	-ras	8e\	-ras	8cc\	-ras
!	!	!	!	!	!	!	!	!	!LO:LB:g=original	!	!	!
16r	.	.	16r	.	16r	.	16r	.	16r	.	16r	.
16C/	.	.	16e/	.	16cc\	.	16G/	et	16e\	et	16cc\	et
!	!	!	!	!	!	!	!LO:LB:g=original	!	!	!	!	!
=92	=92	=92	=92	=92	=92	=92	=92	=92	=92	=92	=92	=92
8C/L	.	.	8gg\L	.	8bb-\L	.	4c\	a-	8g\L	a-	8b-\L	a-
8E/	.	.	8ee\	.	16gg\L	.	.	.	8e\J	.	8g\J	.
.	.	.	.	.	16ee\JJ	.	.	.	.	.	.	.
8F/	.	.	8ff\	.	16ff\LL	.	8c\	-scen-	8f\	-scen-	8a\L	-scen-
.	.	.	.	.	16aa\	.	.	.	.	.	.	.
8A/J	.	.	8aa\J	.	16aa\	.	8c\	-dit	8a\	-dit	8cc\J	-dit
.	.	.	.	.	16ccc\JJ	.	.	.	.	.	.	.
!	!	!	!	!	!	!	!	!	!	!	!LO:LB:g=original	!
=93	=93	=93	=93	=93	=93	=93	=93	=93	=93	=93	=93	=93
8C/L	.	.	8gg\L	.	8bb-\L	.	4c\	in	8g\L	in	8b-\L	in
8E/	.	.	8ee\	.	16gg\L	.	.	.	8e\J	.	8g\J	.
.	.	.	.	.	16ee\JJ	.	.	.	.	.	.	.
8F/	.	.	8ff\	.	16ff\LL	.	8c\	Cae-	8f\	Cae-	8a\	Cae-
.	.	.	.	.	16aa\	.	.	.	.	.	.	.
8A/J	.	.	8aa\J	.	16aa\	.	8c\	-lum	8a\	-lum	8cc\	-lum
.	.	.	.	.	16ccc\JJ	.	.	.	.	.	.	.
=94	=94	=94	=94	=94	=94	=94	=94	=94	=94	=94	=94	=94
!	!	!	!LO:TX:a:t=P:problem=mixed beam	!	!	!	!	!	!	!	!	!
8C/L	.	.	8gg\L	.	8bb-\L	.	8c\	ſe-	8g\	ſe-	8b-\	ſe-
8E/	.	.	8ee\	.	16gg\L	.	8c\	-det	8e\	-det	8g\	-det
.	.	.	.	.	16ee\JJ	.	.	.	.	.	.	.
8F/	.	.	8ff\	.	16ff\LL	.	8c\	ad	8f\	ad	8a\	ad
.	.	.	.	.	16cc\	.	.	.	.	.	.	.
8A/J	.	.	8a/J	.	16cc\	.	8c\	dex-	8a\	dex-	8cc\	(d)ex-
.	.	.	.	.	16a\JJ	.	.	.	.	.	.	.
=95	=95	=95	=95	=95	=95	=95	=95	=95	=95	=95	=95	=95
!LO:TX:a:t=P:problem=mixed beam	!	!	!	!	!	!	!	!	!	!	!	!
8B-\L	.	.	16g/LL	.	16b-\LL	.	8B-\	-te-	16g\LL	-te-	16b-\LL	-te-
.	.	.	16a/	.	16cc\	.	.	.	16a\JJ	.	16cc\JJ	.
*	*	*	*	*	*	*	*	*	*Xtuplet	*	*	*
!	!	!	!	!	!	!	!	!	!LO:TUP:a:problem=klamra łukowa	!	!	!
8G\	.	.	16b-/	.	16dd\	.	8B-\	-ram	24b-\LL	-ram	16dd\LL	-ram
.	.	.	.	.	.	.	.	.	24a\	.	.	.
.	.	.	16g/JJ	.	16b-\JJ	.	.	.	.	.	16b-\JJ	.
.	.	.	.	.	.	.	.	.	24g\JJ	.	.	.
!	!	!	!LO:LB:g=original	!	!	!	!	!	!	!	!	!
8c\	.	.	8f/L	.	8a/L	.	4c\	Pa-	8f\L	Pa-	8a\L	Pa-
8C/J	.	.	8c/J	.	8g/J	.	.	.	8e\J	.	8g\J	.
=96	=96	=96	=96	=96	=96	=96	=96	=96	=96	=96	=96	=96
8F\	.	.	8A/	.	8f/	.	8c\	-tris	8f\	-tris	8f/	-tris
8r	.	.	8r	.	8r	.	8r	.	8r	.	8cc\	et
4r	.	.	4r	.	4r	.	4r	.	4r	.	8cc\	i-
.	.	.	.	.	.	.	.	.	.	.	8cc\	-te-
!LO:LB:g=original	!	!	!	!	!	!	!	!	!	!	!	!
=97	=97	=97	=97	=97	=97	=97	=97	=97	=97	=97	=97	=97
8r	.	.	8r	.	8r	.	8r	.	8r	.	8cc\	-rum
8C/L	.	.	8e/L	.	8g/L	.	8G/	Ven-	8e\	ven-	8cc\	-rum
!	!	!	!	!	!	!	!	!	!LO:LB:g=original	!	!	!
8D/	.	.	8f/	.	8a/	.	8A/	-tu-	8f\	-tu-	8cc\	.
8E/J	.	.	8g/J	.	8b-/J	.	8B-/	-rus	8g\	-rus	8cc\	ventu(rus)
!	!	!	!	!	!	!	!LO:LB:g=original	!	!	!	!	!
=98	=98	=98	=98	=98	=98	=98	=98	=98	=98	=98	=98	=98
8F\	.	.	8f/	.	8a/	.	8A/	est	8f\	est	8cc\	est
8r	.	.	8r	.	8r	.	8r	.	8r	.	8cc\	cum
4r	.	.	4r	.	4r	.	4r	.	4r	.	8cc\	glo-
.	.	.	.	.	.	.	.	.	.	.	16cc\	-ri-
.	.	.	.	.	.	.	.	.	.	.	16cc\	-a
!	!	!	!	!	!	!	!	!	!	!	!LO:LB:g=original	!
=99	=99	=99	=99	=99	=99	=99	=99	=99	=99	=99	=99	=99
8r	.	.	8r	.	8r	.	8r	.	8r	.	8cc\	ju-
8C/L	.	.	8e/L	.	8g/L	.	8G/	Ju-	8e\	ju-	8cc\	-di-
8D/	.	.	8f/	.	8a/	.	8A/	-di-	8f\	-di-	8cc\	-ca-
8E/J	.	.	8g/J	.	8b-/J	.	8B-/	-ca-	8g\	-ca-	8cc\	-re
!	!	!	!	!	!LO:LB:g=original	!	!	!	!	!	!	!
=100	=100	=100	=100	=100	=100	=100	=100	=100	=100	=100	=100	=100
*tremolo	*	*	*	*	*	*	*	*	*	*	*	*
16F\L	6 4	.	16f/LL	.	8a\L	.	8A/	-re	8f\	-re	4ff\	vi-
16F\	.	.	16a/	.	.	.	.	.	.	.	.	.
16F\	.	.	16a/	.	(>32ff\LL	.	4c\	vi-	4a\	vi-	.	.
.	.	.	.	.	32ee\	.	.	.	.	.	.	.
16F\	.	.	16a/JJ	.	32ff\	.	.	.	.	.	.	.
.	.	.	.	.	32gg\JJJ)	.	.	.	.	.	.	.
*	*	*	*tremolo	*	*	*	*	*	*	*	*	*
16F\	.	.	16a/L	.	16ff\LL	.	.	.	.	.	4cc\	-vos
16F\	.	.	16a/	.	16cc\	.	.	.	.	.	.	.
16F\	.	.	16a/	.	16a\	.	8f\	-vos	8a\	-vos	.	.
16F\J	.	.	16a/J	.	16cc\JJ	.	.	.	.	.	.	.
=101	=101	=101	=101	=101	=101	=101	=101	=101	=101	=101	=101	=101
16F\L	5 3	.	16b-/L	.	8dd\L	.	4f\	et	8b-\	et	4dd\	et
16F\	.	.	16b-/	.	.	.	.	.	.	.	.	.
16F\	.	.	16b-/	.	(>32ff\LL	.	.	.	4dd\	mor-	.	.
.	.	.	.	.	32ee\	.	.	.	.	.	.	.
16F\	.	.	16b-/	.	32ff\	.	.	.	.	.	.	.
.	.	.	.	.	32gg\JJJ)	.	.	.	.	.	.	.
16F\	.	.	16b-/	.	16ff\LL	.	8f\	mor-	.	.	8ff\	mor-
16F\	.	.	16b-/	.	16dd\	.	.	.	.	.	.	.
16F\	.	.	16b-/	.	16b-\	.	8f\	-tu-	8b-\	-tu-	8dd\	-tu-
16F\J	.	.	16b-/J	.	16dd\JJ	.	.	.	.	.	.	.
=102	=102	=102	=102	=102	=102	=102	=102	=102	=102	=102	=102	=102
16F\L	X 5	.	16a/L	.	8cc\L	.	4f\	-os	4a\	-os	4cc\	-os
16F\	.	.	16a/	.	.	.	.	.	.	.	.	.
16F\	.	.	16a/	.	(>32ff\LL	.	.	.	.	.	.	.
.	.	.	.	.	32ee\	.	.	.	.	.	.	.
16F\	.	.	16a/	.	32ff\	.	.	.	.	.	.	.
.	.	.	.	.	32gg\JJJ)	.	.	.	.	.	.	.
16F\	.	.	16a/	.	16ff\LL	.	8f\	Cu-	8a\	cu-	8ff\	cu-
16F\	.	.	16a/	.	16cc\	.	.	.	.	.	.	.
16F\	.	.	16a/	.	16a\	.	8f\	-jus	8a\	-ius	8cc\	-jus
16F\J	.	.	16a/J	.	16cc\JJ	.	.	.	.	.	.	.
=103	=103	=103	=103	=103	=103	=103	=103	=103	=103	=103	=103	=103
16E\L	.	.	16g/L	.	(>8b-\L	.	4c\	Re-	4g\	Re-	4b-\	Re-
16E\	.	.	16g/	.	.	.	.	.	.	.	.	.
16E\	.	.	16g/	.	32gg\LL	.	.	.	.	.	.	.
.	.	.	.	.	32ff#X\	.	.	.	.	.	.	.
16E\	.	.	16g/	.	32gg\	.	.	.	.	.	.	.
.	.	.	.	.	32aa\JJJ)	.	.	.	.	.	.	.
16E\	.	.	16g/	.	16gg\LL	.	8c\	-gni	8b-\	-gni	8gg\	-gni
16E\	.	.	16g/	.	16ee\	.	.	.	.	.	.	.
16E\	.	.	16g/	.	16cc\	.	8c\	non	8g\	non	8b-\	non
16E\J	.	.	16g/J	.	16b-\JJ	.	.	.	.	.	.	.
*Xtremolo	*	*	*Xtremolo	*	*	*	*	*	*	*	*	*
!	!	!	!	!	!	!	!	!	!LO:PB:g=original	!	!	!
=104	=104	=104	=104	=104	=104	=104	=104	=104	=104	=104	=104	=104
!	!	!	!LO:TX:a:t=P:problem=mixed beam	!	!	!	!	!	!	!	!	!
8F\L	.	.	8f/L	.	8a\L	.	4c\	e-	4f\	e-	4a\	e-
8F\	.	.	8f/	.	8ff\	.	.	.	.	.	.	.
8B-\	.	.	8g/	.	8b-\	.	4c\	-rit	4g\	-rit	4b-\	-rit
8B-\J	.	.	8ee\J	.	8gg\J	.	.	.	.	.	.	.
!	!	!	!	!	!	!	!LO:LB:g=original	!	!	!	!	!
=105	=105	=105	=105	=105	=105	=105	=105	=105	=105	=105	=105	=105
4c\	6 4	.	4g/ 4ff	.	4a/ 4ff	.	4c\	fi-	4f\	fi-	4a\	fi-
4C/	5 3	.	4f/ 4b- 4ee	.	4g/ 4b- 4ee	.	4c\	.	4e\	.	4g\	.
=106	=106	=106	=106	=106	=106	=106	=106	=106	=106	=106	=106	=106
4F\	.	.	4f/ 4a 4ff	.	4f/ 4a 4ff	.	4c\	-nis	4f\	-nis	4a\	-nis
4r	.	.	4r	.	4r	.	4r	.	4r	.	4r	.
==	==	==	==	==	==	==	==	==	==	==	==	==
*-	*-	*-	*-	*-	*-	*-	*-	*-	*-	*-	*-	*-
!!!system-decoration: [(s1,s2,s3)][(s4,s5)]s6
!!!RDF**kern: > = above
!!!RDF**kern: < = below
!!!EED: Mateusz Mrugas
!!!EST: 2020-11-09
!!!AIN: 1 alto 1 organ 1 tenor 2 violn 1 vox
!!!ENC: Andrzej Borzym
!!!END: 2020-05-26
